src/assets/svg/large-magnifier.svg

<svg width="122" height="119" viewBox="0 0 122 119" fill="none" xmlns="http://www.w3.org/2000/svg">
<path d="M114 111L78.6667 76.6667M90.4444 48.0556C90.4444 53.3157 89.3782 58.5244 87.3066 63.3842C85.235 68.2439 82.1986 72.6596 78.3707 76.3791C74.5429 80.0986 69.9986 83.0491 64.9973 85.0621C59.996 87.075 54.6356 88.1111 49.2222 88.1111C43.8088 88.1111 38.4485 87.075 33.4472 85.0621C28.4459 83.0491 23.9015 80.0986 20.0737 76.3791C16.2459 72.6596 13.2095 68.2439 11.1379 63.3842C9.06624 58.5244 8 53.3157 8 48.0556C8 37.4322 12.343 27.2439 20.0737 19.732C27.8044 12.2201 38.2894 8 49.2222 8C60.155 8 70.6401 12.2201 78.3707 19.732C86.1014 27.2439 90.4444 37.4322 90.4444 48.0556Z" stroke="#00C700" stroke-width="15" stroke-linecap="round" stroke-linejoin="round"/>
</svg>

<svg xmlns="http://www.w3.org/2000/svg" width="122" height="119" fill="none"><path stroke="#00C700" stroke-linecap="round" stroke-linejoin="round" stroke-width="15" d="M114 111 78.667 76.667m11.777-28.611c0 5.26-1.066 10.468-3.137 15.328A40 40 0 0 1 78.37 76.38a41.3 41.3 0 0 1-13.374 8.683 42.3 42.3 0 0 1-15.775 3.05 42.3 42.3 0 0 1-15.775-3.05 41.3 41.3 0 0 1-13.373-8.683 40 40 0 0 1-8.936-12.995A39.1 39.1 0 0 1 8 48.056c0-10.624 4.343-20.812 12.074-28.324S38.289 8 49.222 8s21.418 4.22 29.149 11.732c7.73 7.512 12.073 17.7 12.073 28.324"/></svg>
